;Generated with Cura_SteamEngine 15.01
; Default start code
G28 ; Home extruder
G1 Z15 F100
M107 ; Turn off fan
G90 ; Absolute positioning
M82 ; Extruder in absolute mode
M190 S50
; Activate all used extruder
M104 T0 S210
G92 E0 ; Reset extruder position
; Wait for all used extruders to reach temperature
M109 T0 S210
;Layer count: 55
;LAYER:0
M107
G0 F9000 X41.590 Y40.735 Z0.300
;TYPE:SKIRT
G1 F1800 X88.680 Y40.735 E2.34933
G1 X88.680 Y112.398 E5.92461
G1 X97.854 Y112.405 E6.38230
G1 X178.427 Y112.405 E10.40211
G1 X178.427 Y148.966 E12.22614
G1 X88.680 Y148.966 E16.70364
G1 X88.680 Y180.564 E18.28007
G1 X41.587 Y164.208 E20.76722
G1 X41.590 Y160.538 E20.95032
G1 X41.589 Y48.116 E26.55907
G1 X41.590 Y45.326 E26.69827
G1 X41.590 Y40.735 E26.92731
G1 F2400 E22.92731
G0 F9000 X45.390 Y44.535
;TYPE:WALL-INNER
G1 F2400 E26.92731
G1 F1800 X84.880 Y44.535 E28.89748
G1 X84.880 Y116.196 E32.47266
G1 X174.627 Y116.205 E36.95015
G1 X174.627 Y145.166 E38.39502
G1 X84.880 Y145.166 E42.87252
G1 X84.880 Y175.221 E44.37197
G1 X45.389 Y161.505 E46.45764
G1 X45.390 Y44.535 E52.29329
G0 F9000 X44.990 Y44.135
;TYPE:WALL-OUTER
G1 F1800 X85.280 Y44.135 E54.30337
G1 X85.280 Y115.796 E57.87855
G1 X175.027 Y115.805 E62.35605
G1 X175.027 Y145.566 E63.84083
G1 X85.280 Y145.566 E68.31833
G1 X85.280 Y175.784 E69.82591
G1 X44.989 Y161.790 E71.95383
G1 X44.990 Y44.135 E77.82366
G0 F9000 X45.529 Y44.680
;TYPE:SKIN
G1 F1800 X84.740 Y83.891 E80.59021
G0 F9000 X84.740 Y83.326
G1 F1800 X46.089 Y44.675 E83.31724
G0 F9000 X46.654 Y44.675
G1 F1800 X84.740 Y82.760 E86.00438
G0 F9000 X84.740 Y82.194
G1 F1800 X47.220 Y44.675 E88.65158
G0 F9000 X47.786 Y44.675
G1 F1800 X84.740 Y81.629 E91.25889
G0 F9000 X84.740 Y81.063
G1 F1800 X48.351 Y44.675 E93.82629
G0 F9000 X48.917 Y44.675
G1 F1800 X84.740 Y80.497 E96.35377
G0 F9000 X84.740 Y84.457
G1 F1800 X45.529 Y45.246 E99.12031
G0 F9000 X45.529 Y45.812
G1 F1800 X84.740 Y85.023 E101.88686
G0 F9000 X84.740 Y85.588
G1 F1800 X45.529 Y46.377 E104.65341
G0 F9000 X45.529 Y46.943
G1 F1800 X84.740 Y86.154 E107.41996
G0 F9000 X84.740 Y86.720
G1 F1800 X45.529 Y47.509 E110.18650
G0 F9000 X45.529 Y48.074
G1 F1800 X84.740 Y87.285 E112.95305
G0 F9000 X84.740 Y87.851
G1 F1800 X45.529 Y48.640 E115.71960
G0 F9000 X45.529 Y49.206
G1 F1800 X84.740 Y88.417 E118.48615
G0 F9000 X84.740 Y88.983
G1 F1800 X45.529 Y49.771 E121.25273
G0 F9000 X45.529 Y50.337
G1 F1800 X84.740 Y89.548 E124.01928
G0 F9000 X84.740 Y90.114
G1 F1800 X45.529 Y50.903 E126.78583
G0 F9000 X45.529 Y51.468
G1 F1800 X84.740 Y90.680 E129.55241
G0 F9000 X84.740 Y91.245
G1 F1800 X45.529 Y52.034 E132.31896
G0 F9000 X45.529 Y52.600
G1 F1800 X84.740 Y91.811 E135.08551
G0 F9000 X84.740 Y92.377
G1 F1800 X45.529 Y53.165 E137.85209
G0 F9000 X45.529 Y53.731
G1 F1800 X84.740 Y92.942 E140.61864
G0 F9000 X84.740 Y93.508
G1 F1800 X45.529 Y54.297 E143.38518
G0 F9000 X45.529 Y54.863
G1 F1800 X84.740 Y94.074 E146.15173
G0 F9000 X84.740 Y94.639
G1 F1800 X45.529 Y55.428 E148.91828
G0 F9000 X45.529 Y55.994
G1 F1800 X84.740 Y95.205 E151.68483
G0 F9000 X84.740 Y95.771
G1 F1800 X45.529 Y56.560 E154.45138
G0 F9000 X45.529 Y57.125
G1 F1800 X84.740 Y96.336 E157.21792
G0 F9000 X84.740 Y96.902
G1 F1800 X45.529 Y57.691 E159.98447
G0 F9000 X45.529 Y58.257
G1 F1800 X84.740 Y97.468 E162.75102
G0 F9000 X84.740 Y98.033
G1 F1800 X45.529 Y58.822 E165.51757
G0 F9000 X45.529 Y59.388
G1 F1800 X84.740 Y98.599 E168.28411
G0 F9000 X84.740 Y99.165
G1 F1800 X45.529 Y59.954 E171.05066
G0 F9000 X49.483 Y44.675
G1 F1800 X84.740 Y79.932 E173.53823
G0 F9000 X84.740 Y79.366
G1 F1800 X50.049 Y44.675 E175.98587
G0 F9000 X50.614 Y44.675
G1 F1800 X84.740 Y78.800 E178.39361
G0 F9000 X84.740 Y78.235
G1 F1800 X51.180 Y44.675 E180.76145
G0 F9000 X51.746 Y44.675
G1 F1800 X84.740 Y77.669 E183.08935
G0 F9000 X84.740 Y77.103
G1 F1800 X52.311 Y44.675 E185.37736
G0 F9000 X52.877 Y44.675
G1 F1800 X84.740 Y76.537 E187.62543
G0 F9000 X84.740 Y75.972
G1 F1800 X53.443 Y44.675 E189.83360
G0 F9000 X54.008 Y44.675
G1 F1800 X84.740 Y75.406 E192.00188
G0 F9000 X84.740 Y74.840
G1 F1800 X54.574 Y44.675 E194.13022
G0 F9000 X55.140 Y44.675
G1 F1800 X84.740 Y74.275 E196.21866
G0 F9000 X84.740 Y73.709
G1 F1800 X55.705 Y44.675 E198.26720
G0 F9000 X56.271 Y44.675
G1 F1800 X84.740 Y73.143 E200.27580
G0 F9000 X84.740 Y72.578
G1 F1800 X56.837 Y44.675 E202.24451
G0 F9000 X57.402 Y44.675
G1 F1800 X84.740 Y72.012 E204.17332
G0 F9000 X84.740 Y71.446
G1 F1800 X57.968 Y44.675 E206.06219
G0 F9000 X58.534 Y44.675
G1 F1800 X84.740 Y70.881 E207.91117
G0 F9000 X84.740 Y70.315
G1 F1800 X59.099 Y44.675 E209.72024
G0 F9000 X59.665 Y44.675
G1 F1800 X84.740 Y69.749 E211.48938
G0 F9000 X84.740 Y69.184
G1 F1800 X60.231 Y44.675 E213.21863
G0 F9000 X60.797 Y44.675
G1 F1800 X84.740 Y68.618 E214.90794
G0 F9000 X84.740 Y68.052
G1 F1800 X61.362 Y44.675 E216.55734
G0 F9000 X61.928 Y44.675
G1 F1800 X84.740 Y67.486 E218.16682
G0 F9000 X84.740 Y66.921
G1 F1800 X62.494 Y44.675 E219.73639
G0 F9000 X63.059 Y44.675
G1 F1800 X84.740 Y66.355 E221.26607
G0 F9000 X84.740 Y65.789
G1 F1800 X63.625 Y44.675 E222.75581
G0 F9000 X64.191 Y44.675
G1 F1800 X84.740 Y65.224 E224.20566
G0 F9000 X84.740 Y64.658
G1 F1800 X64.756 Y44.675 E225.61560
G0 F9000 X65.322 Y44.675
G1 F1800 X84.740 Y64.092 E226.98561
G0 F9000 X84.740 Y63.527
G1 F1800 X65.888 Y44.675 E228.31572
G0 F9000 X66.453 Y44.675
G1 F1800 X84.740 Y62.961 E229.60593
G0 F9000 X84.740 Y62.395
G1 F1800 X67.019 Y44.675 E230.85621
G0 F9000 X67.585 Y44.675
G1 F1800 X84.740 Y61.830 E232.06659
G0 F9000 X84.740 Y61.264
G1 F1800 X68.150 Y44.675 E233.23706
G0 F9000 X68.716 Y44.675
G1 F1800 X84.740 Y60.698 E234.36761
G0 F9000 X84.740 Y60.133
G1 F1800 X69.282 Y44.675 E235.45825
G0 F9000 X69.848 Y44.675
G1 F1800 X84.740 Y59.567 E236.50897
G0 F9000 X84.740 Y59.001
G1 F1800 X70.413 Y44.675 E237.51978
G0 F9000 X70.979 Y44.675
G1 F1800 X84.740 Y58.436 E238.49069
G0 F9000 X84.740 Y57.870
G1 F1800 X71.545 Y44.675 E239.42167
G0 F9000 X72.110 Y44.675
G1 F1800 X84.740 Y57.304 E240.31275
G0 F9000 X84.740 Y56.738
G1 F1800 X72.676 Y44.675 E241.16389
G0 F9000 X73.242 Y44.675
G1 F1800 X84.740 Y56.173 E241.97514
G0 F9000 X84.740 Y55.607
G1 F1800 X73.807 Y44.675 E242.74649
G0 F9000 X74.373 Y44.675
G1 F1800 X84.740 Y55.041 E243.47790
G0 F9000 X84.740 Y54.476
G1 F1800 X74.939 Y44.675 E244.16941
G0 F9000 X75.504 Y44.675
G1 F1800 X84.740 Y53.910 E244.82103
G0 F9000 X84.740 Y53.344
G1 F1800 X76.070 Y44.675 E245.43271
G0 F9000 X76.636 Y44.675
G1 F1800 X84.740 Y52.779 E246.00449
G0 F9000 X84.740 Y52.213
G1 F1800 X77.201 Y44.675 E246.53637
G0 F9000 X77.767 Y44.675
G1 F1800 X84.740 Y51.647 E247.02832
G0 F9000 X84.740 Y51.082
G1 F1800 X78.333 Y44.675 E247.48037
G0 F9000 X78.898 Y44.675
G1 F1800 X84.740 Y50.516 E247.89251
G0 F9000 X84.740 Y49.950
G1 F1800 X79.464 Y44.675 E248.26473
G0 F9000 X80.030 Y44.675
G1 F1800 X84.740 Y49.385 E248.59705
G0 F9000 X84.740 Y48.819
G1 F1800 X80.596 Y44.675 E248.88943
G0 F9000 X81.161 Y44.675
G1 F1800 X84.740 Y48.253 E249.14191
G0 F9000 X84.740 Y47.687
G1 F1800 X81.727 Y44.675 E249.35446
G0 F9000 X82.293 Y44.675
G1 F1800 X84.740 Y47.122 E249.52711
G0 F9000 X84.740 Y46.556
G1 F1800 X82.858 Y44.675 E249.65986
G0 F9000 X83.424 Y44.675
G1 F1800 X84.740 Y45.990 E249.75267
G0 F9000 X84.740 Y45.425
G1 F1800 X83.990 Y44.675 E249.80559
G0 F9000 X84.555 Y44.675
G1 F1800 X84.740 Y44.859 E249.81861
G0 F9000 X45.529 Y60.519
G1 F1800 X84.740 Y99.731 E252.58519
G0 F9000 X84.740 Y100.296
G1 F1800 X45.529 Y61.085 E255.35174
G0 F9000 X45.529 Y61.651
G1 F1800 X84.740 Y100.862 E258.11829
G0 F9000 X84.740 Y101.428
G1 F1800 X45.529 Y62.216 E260.88487
G0 F9000 X45.529 Y62.782
G1 F1800 X84.740 Y101.993 E263.65142
G0 F9000 X84.740 Y102.559
G1 F1800 X45.529 Y63.348 E266.41796
G0 F9000 X45.529 Y63.913
G1 F1800 X84.740 Y103.125 E269.18455
G0 F9000 X84.740 Y103.690
G1 F1800 X45.529 Y64.479 E271.95110
G0 F9000 X45.529 Y65.045
G1 F1800 X84.740 Y104.256 E274.71764
G0 F9000 X84.740 Y104.822
G1 F1800 X45.529 Y65.611 E277.48419
G0 F9000 X45.529 Y66.176
G1 F1800 X84.740 Y105.387 E280.25074
G0 F9000 X84.740 Y105.953
G1 F1800 X45.529 Y66.742 E283.01729
G0 F9000 X45.529 Y67.308
G1 F1800 X84.740 Y106.519 E285.78383
G0 F9000 X84.740 Y107.084
G1 F1800 X45.529 Y67.873 E288.55038
G0 F9000 X45.529 Y68.439
G1 F1800 X84.740 Y107.650 E291.31693
G0 F9000 X84.740 Y108.216
G1 F1800 X45.529 Y69.005 E294.08348
G0 F9000 X45.529 Y69.570
G1 F1800 X84.740 Y108.782 E296.85006
G0 F9000 X84.740 Y109.347
G1 F1800 X45.529 Y70.136 E299.61661
G0 F9000 X45.529 Y70.702
G1 F1800 X84.740 Y109.913 E302.38316
G0 F9000 X84.740 Y110.479
G1 F1800 X45.529 Y71.267 E305.14974
G0 F9000 X45.529 Y71.833
G1 F1800 X84.740 Y111.044 E307.91629
G0 F9000 X84.740 Y111.610
G1 F1800 X45.529 Y72.399 E310.68284
G0 F9000 X45.529 Y72.964
G1 F1800 X84.740 Y112.176 E313.44942
G0 F9000 X84.740 Y112.741
G1 F1800 X45.529 Y73.530 E316.21597
G0 F9000 X45.529 Y74.096
G1 F1800 X84.740 Y113.307 E318.98251
G0 F9000 X84.740 Y113.873
G1 F1800 X45.529 Y74.661 E321.74910
G0 F9000 X45.529 Y75.227
G1 F1800 X84.740 Y114.438 E324.51565
G0 F9000 X84.740 Y115.004
G1 F1800 X45.529 Y75.793 E327.28219
G0 F9000 X45.529 Y76.359
G1 F1800 X84.740 Y115.570 E330.04874
G0 F9000 X84.740 Y116.135
G1 F1800 X45.529 Y76.924 E332.81529
G0 F9000 X45.529 Y77.490
G1 F1800 X113.064 Y145.025 E337.58025
G0 F9000 X113.629 Y145.025
G1 F1800 X84.940 Y116.336 E339.60441
G0 F9000 X85.506 Y116.336
G1 F1800 X114.195 Y145.025 E341.62858
G0 F9000 X114.761 Y145.025
G1 F1800 X86.071 Y116.336 E343.65277
G0 F9000 X86.637 Y116.336
G1 F1800 X115.326 Y145.025 E345.67694
G0 F9000 X115.892 Y145.025
G1 F1800 X87.203 Y116.336 E347.70110
G0 F9000 X87.768 Y116.336
G1 F1800 X116.458 Y145.025 E349.72530
G0 F9000 X117.024 Y145.025
G1 F1800 X88.334 Y116.336 E351.74950
G0 F9000 X88.900 Y116.336
G1 F1800 X117.589 Y145.025 E353.77366
G0 F9000 X118.155 Y145.025
G1 F1800 X89.465 Y116.336 E355.79786
G0 F9000 X90.031 Y116.336
G1 F1800 X118.721 Y145.025 E357.82206
G0 F9000 X119.286 Y145.025
G1 F1800 X90.597 Y116.336 E359.84623
G0 F9000 X91.163 Y116.336
G1 F1800 X119.852 Y145.025 E361.87039
G0 F9000 X112.498 Y145.025
G1 F1800 X45.529 Y78.056 E366.59542
G0 F9000 X45.529 Y78.621
G1 F1800 X111.932 Y145.025 E371.28054
G0 F9000 X111.367 Y145.025
G1 F1800 X45.529 Y79.187 E375.92577
G0 F9000 X45.529 Y79.753
G1 F1800 X110.801 Y145.025 E380.53106
G0 F9000 X110.235 Y145.025
G1 F1800 X45.529 Y80.318 E385.09645
G0 F9000 X45.529 Y80.884
G1 F1800 X109.670 Y145.025 E389.62195
G0 F9000 X109.104 Y145.025
G1 F1800 X45.529 Y81.450 E394.10751
G0 F9000 X45.529 Y82.015
G1 F1800 X108.538 Y145.025 E398.55317
G0 F9000 X107.973 Y145.025
G1 F1800 X45.529 Y82.581 E402.95893
G0 F9000 X45.529 Y83.147
G1 F1800 X107.407 Y145.025 E407.32476
G0 F9000 X106.841 Y145.025
G1 F1800 X45.529 Y83.712 E411.65068
G0 F9000 X45.529 Y84.278
G1 F1800 X106.276 Y145.025 E415.93671
G0 F9000 X105.710 Y145.025
G1 F1800 X45.529 Y84.844 E420.18281
G0 F9000 X45.529 Y85.410
G1 F1800 X105.144 Y145.025 E424.38897
G0 F9000 X104.578 Y145.025
G1 F1800 X45.529 Y85.975 E428.55523
G0 F9000 X45.529 Y86.541
G1 F1800 X104.013 Y145.025 E432.68159
G0 F9000 X103.447 Y145.025
G1 F1800 X45.529 Y87.107 E436.76802
G0 F9000 X45.529 Y87.672
G1 F1800 X102.881 Y145.025 E440.81455
G0 F9000 X102.316 Y145.025
G1 F1800 X45.529 Y88.238 E444.82118
G0 F9000 X45.529 Y88.804
G1 F1800 X101.750 Y145.025 E448.78787
G0 F9000 X101.184 Y145.025
G1 F1800 X45.529 Y89.369 E452.71467
G0 F9000 X45.529 Y89.935
G1 F1800 X100.619 Y145.025 E456.60156
G0 F9000 X100.053 Y145.025
G1 F1800 X45.529 Y90.501 E460.44853
G0 F9000 X45.529 Y91.066
G1 F1800 X99.487 Y145.025 E464.25559
G0 F9000 X98.922 Y145.025
G1 F1800 X45.529 Y91.632 E468.02276
G0 F9000 X45.529 Y92.198
G1 F1800 X98.356 Y145.025 E471.74999
G0 F9000 X97.790 Y145.025
G1 F1800 X45.529 Y92.763 E475.43732
G0 F9000 X45.529 Y93.329
G1 F1800 X97.225 Y145.025 E479.08475
G0 F9000 X96.659 Y145.025
G1 F1800 X45.529 Y93.895 E482.69225
G0 F9000 X45.529 Y94.460
G1 F1800 X96.093 Y145.025 E486.25985
G0 F9000 X95.528 Y145.025
G1 F1800 X45.529 Y95.026 E489.78754
G0 F9000 X45.529 Y95.592
G1 F1800 X94.962 Y145.025 E493.27531
G0 F9000 X94.396 Y145.025
G1 F1800 X45.529 Y96.158 E496.72314
G0 F9000 X45.529 Y96.723
G1 F1800 X93.830 Y145.025 E500.13107
G0 F9000 X93.265 Y145.025
G1 F1800 X45.529 Y97.289 E503.49910
G0 F9000 X45.529 Y97.855
G1 F1800 X92.699 Y145.025 E506.82720
G0 F9000 X92.133 Y145.025
G1 F1800 X45.529 Y98.420 E510.11540
G0 F9000 X45.529 Y98.986
G1 F1800 X91.568 Y145.025 E513.36370
G0 F9000 X91.002 Y145.025
G1 F1800 X45.529 Y99.552 E516.57207
G0 F9000 X45.529 Y100.117
G1 F1800 X90.436 Y145.025 E519.74053
G0 F9000 X89.871 Y145.025
G1 F1800 X45.529 Y100.683 E522.86910
G0 F9000 X45.529 Y101.249
G1 F1800 X89.305 Y145.025 E525.95774
G0 F9000 X88.739 Y145.025
G1 F1800 X45.529 Y101.814 E529.00647
G0 F9000 X45.529 Y102.380
G1 F1800 X88.174 Y145.025 E532.01530
G0 F9000 X87.608 Y145.025
G1 F1800 X45.529 Y102.946 E534.98421
G0 F9000 X45.529 Y103.511
G1 F1800 X87.042 Y145.025 E537.91321
G0 F9000 X86.477 Y145.025
G1 F1800 X45.529 Y104.077 E540.80231
G0 F9000 X45.529 Y104.643
G1 F1800 X85.911 Y145.025 E543.65148
G0 F9000 X85.345 Y145.025
G1 F1800 X45.529 Y105.209 E546.46071
G0 F9000 X45.529 Y105.774
G1 F1800 X84.779 Y145.025 E549.23005
G0 F9000 X84.740 Y145.551
G1 F1800 X45.529 Y106.340 E551.99659
G0 F9000 X45.529 Y106.906
G1 F1800 X84.740 Y146.117 E554.76314
G0 F9000 X84.740 Y146.682
G1 F1800 X45.529 Y107.471 E557.52969
G0 F9000 X45.529 Y108.037
G1 F1800 X84.740 Y147.248 E560.29624
G0 F9000 X84.740 Y147.814
G1 F1800 X45.529 Y108.603 E563.06279
G0 F9000 X45.529 Y109.168
G1 F1800 X84.740 Y148.379 E565.82933
G0 F9000 X84.740 Y148.945
G1 F1800 X45.529 Y109.734 E568.59588
G0 F9000 X45.529 Y110.300
G1 F1800 X84.740 Y149.511 E571.36243
G0 F9000 X84.740 Y150.077
G1 F1800 X45.529 Y110.865 E574.12901
G0 F9000 X45.529 Y111.431
G1 F1800 X84.740 Y150.642 E576.89556
G0 F9000 X84.740 Y151.208
G1 F1800 X45.529 Y111.997 E579.66211
G0 F9000 X45.529 Y112.562
G1 F1800 X84.740 Y151.774 E582.42869
G0 F9000 X84.740 Y152.339
G1 F1800 X45.529 Y113.128 E585.19524
G0 F9000 X45.529 Y113.694
G1 F1800 X84.740 Y152.905 E587.96179
G0 F9000 X84.740 Y153.471
G1 F1800 X45.529 Y114.259 E590.72837
G0 F9000 X45.529 Y114.825
G1 F1800 X84.740 Y154.036 E593.49492
G0 F9000 X84.740 Y154.602
G1 F1800 X45.529 Y115.391 E596.26147
G0 F9000 X45.529 Y115.957
G1 F1800 X84.740 Y155.168 E599.02801
G0 F9000 X84.740 Y155.733
G1 F1800 X45.529 Y116.522 E601.79456
G0 F9000 X45.529 Y117.088
G1 F1800 X84.740 Y156.299 E604.56111
G0 F9000 X84.740 Y156.865
G1 F1800 X45.529 Y117.654 E607.32766
G0 F9000 X45.529 Y118.219
G1 F1800 X84.740 Y157.430 E610.09420
G0 F9000 X84.740 Y157.996
G1 F1800 X45.529 Y118.785 E612.86075
G0 F9000 X45.529 Y119.351
G1 F1800 X84.740 Y158.562 E615.62730
G0 F9000 X84.740 Y159.128
G1 F1800 X45.529 Y119.916 E618.39388
G0 F9000 X45.529 Y120.482
G1 F1800 X84.740 Y159.693 E621.16043
G0 F9000 X84.740 Y160.259
G1 F1800 X45.529 Y121.048 E623.92698
G0 F9000 X45.529 Y121.613
G1 F1800 X84.740 Y160.825 E626.69356
G0 F9000 X84.740 Y161.390
G1 F1800 X45.529 Y122.179 E629.46011
G0 F9000 X45.529 Y122.745
G1 F1800 X84.740 Y161.956 E632.22666
G0 F9000 X84.740 Y162.522
G1 F1800 X45.529 Y123.310 E634.99324
G0 F9000 X45.529 Y123.876
G1 F1800 X84.740 Y163.087 E637.75979
G0 F9000 X84.740 Y163.653
G1 F1800 X45.529 Y124.442 E640.52634
G0 F9000 X45.529 Y125.007
G1 F1800 X84.740 Y164.219 E643.29292
G0 F9000 X84.740 Y164.784
G1 F1800 X45.529 Y125.573 E646.05947
G0 F9000 X45.529 Y126.139
G1 F1800 X84.740 Y165.350 E648.82602
G0 F9000 X84.740 Y165.916
G1 F1800 X45.529 Y126.705 E651.59256
G0 F9000 X45.529 Y127.270
